packages/heroicons/src/prism/edit.svg

<!-- Generated by IcoMoon.io -->
<svg version="1.1" xmlns="http://www.w3.org/2000/svg" width="16" height="16" viewBox="0 0 16 16">
<title>edit</title>
<path fill="#4a4a4a" d="M11.997 8.508l1.999-1.999v7.998c0 0.007 0 0.016 0 0.025 0 0.408-0.168 0.777-0.44 1.041l-0 0c-0.257 0.264-0.616 0.427-1.012 0.427-0.014 0-0.029-0-0.043-0.001l0.002 0h-10.997c-0.014 0.001-0.031 0.001-0.048 0.001-0.399 0-0.759-0.164-1.018-0.427l-0-0c-0.272-0.264-0.44-0.633-0.44-1.042 0-0.009 0-0.017 0-0.026l-0 0.001v-10.997c-0-0.007-0-0.016-0-0.025 0-0.408 0.169-0.777 0.44-1.041l0-0c0.257-0.241 0.603-0.389 0.984-0.389 0.029 0 0.058 0.001 0.086 0.003l-0.004-0h7.998l-1.999 1.999h-5.505v9.997h9.997zM13.503 0.003c0.037-0.002 0.080-0.003 0.124-0.003 1.31 0 2.373 1.062 2.373 2.373 0 0.048-0.001 0.096-0.004 0.143l0-0.007-9.491 9.491h-2.506v-2.493z"></path>
</svg>

<svg xmlns="http://www.w3.org/2000/svg" aria-hidden="true" fill="currentColor" viewBox="0 0 16 16">
  <path d="M11.997 8.508l1.999-1.999v8.023c0 .408-.168.777-.44 1.041a1.408 1.408 0 01-1.012.427l-.043-.001h.002H1.506L1.458 16c-.399 0-.759-.164-1.018-.427A1.446 1.446 0 010 14.531v-.026.001V3.484c0-.408.169-.777.44-1.041a1.434 1.434 0 011.07-.386h-.004 7.998L7.505 4.056H2v9.997h9.997zM13.503.003a2.373 2.373 0 012.493 2.513v-.007L6.505 12H3.999V9.507z"/>
</svg>
